src/assets/thumbs-down.svg

<svg fill="none" height="20" viewBox="0 0 20 20" width="20" xmlns="http://www.w3.org/2000/svg"><path clip-rule="evenodd" d="m12.1892 10.2132c.1581-.125.321-.22708.4694-.27453v-3.83235c0-.53591-.1715-1.01927-.4694-1.37878-.3283-.39617-.8101-.64195-1.3851-.64196h-5.25389c-.20652 0-.4142.08319-.55992.22877-.12391.12478-.18587.31195-.18587.47716 0 .14789.04131.29347.12506.39629.12392.18717.14457.3963.06081.60542-.08261.20681-.26848.33274-.47501.37549-.33159.06123-.57942.35354-.57942.68629 0 .14557.04015.29231.14571.41709.12392.14557.16408.33274.12392.51991-.04131.18833-.16637.33506-.33159.41709-.24784.12478-.39355.3547-.37175.62505 0 .29231.16407.54187.43371.64585.22832.08434.37289.27151.39355.50028.02065.22873-.08376.45753-.26964.58343-.20653.1456-.33044.3963-.30979.6459.04016.3339.39355.6239.74465.6239h2.85582c.24668 0 .49566.1259.66089.3131.16522.2091.24783.4587.20652.7082l-.18587 1.4581c-.04245.2715-.02065.5003.02065.6874.08698.3684.27307.6925.52742.9442.0162.0161.03268.0318.04943.0473.16618.1532.35884.2768.57019.3638.22694.0933.47542.1444.73581.1444.0413 0 .08261-.0208.10321-.0416.0207-.0208.0414-.0612.0414-.1028v-1.7088c0-.9382.2696-1.8544.7653-2.6458l.724-1.1669c.1486-.1856.3784-.43.6198-.6209zm.5134 1.6396c.36.3949.8786.6427 1.4551.6427h1.8738c1.0872 0 1.9685-.8813 1.9685-1.9685v-6.55853c0-1.08716-.8813-1.96847-1.9685-1.96847h-1.8738c-.7371 0-1.3795.40509-1.7169 1.00478-.4656-.26468-1.0154-.41919-1.6367-.4192h-5.25389c-.59003 0-1.18329.23124-1.62006.66759l-.00419.0042c-.45251.45567-.62154 1.04924-.62154 1.53414 0 .09521.00613.19725.02047.30344-.53837.40104-.88903 1.04035-.88903 1.76005 0 .17478.02053.3636.07058.55626-.33168.38726-.53486.89872-.50348 1.48327.01277.47601.17631.93285.46554 1.30177-.16597.343-.24687.7327-.21341 1.137l.0023.0277.00332.0277c.07559.6285.42328 1.1095.78542 1.411.36511.3038.87179.5338 1.4485.5338h2.15008l-.09837.7716c-.07094.4752-.03181.8861.04155 1.2185l.00237.0107.00253.0108c.36244 1.5348 1.719 2.6549 3.3427 2.6549.46861 0 .88551-.2005 1.16761-.4846.2729-.2748.477-.6857.477-1.1598v-1.7088c0-.6504.187-1.2915.5365-1.8496zm-9.76325-3.60844c-.00099-.00116-.00198-.00232-.00297-.00349zm10.74985 2.28264c0 .2588.2097.4685.4685.4685h1.8738c.2588 0 .4685-.2097.4685-.4685v-6.55853c0-.25873-.2097-.46847-.4685-.46847h-1.8738c-.2588 0-.4685.20974-.4685.46847z" fill="#666f7d" fill-rule="evenodd"/></svg>

<svg width="20" height="20" viewBox="0 0 20 20" fill="none" xmlns="http://www.w3.org/2000/svg">
  <path fill-rule="evenodd" clip-rule="evenodd" d="M12.1892 10.2132C12.3473 10.0882 12.5102 9.98612 12.6586 9.93867L12.6586 6.10632C12.6586 5.57041 12.4871 5.08705 12.1892 4.72754C11.8609 4.33137 11.3791 4.08559 10.8041 4.08558L5.55021 4.08558C5.34369 4.08558 5.13601 4.16877 4.99029 4.31435C4.86638 4.43913 4.80442 4.6263 4.80442 4.79151C4.80442 4.9394 4.84573 5.08498 4.92948 5.1878C5.0534 5.37497 5.07405 5.5841 4.99029 5.79322C4.90768 6.00003 4.72181 6.12596 4.51528 6.16871C4.18369 6.22994 3.93586 6.52225 3.93586 6.855C3.93586 7.00057 3.97601 7.14731 4.08157 7.27209C4.20549 7.41766 4.24565 7.60483 4.20549 7.792C4.16418 7.98033 4.03912 8.12706 3.8739 8.20909C3.62606 8.33387 3.48035 8.56379 3.50215 8.83414C3.50215 9.12645 3.66622 9.37601 3.93586 9.47999C4.16418 9.56433 4.30875 9.7515 4.32941 9.98027C4.35006 10.209 4.24565 10.4378 4.05977 10.5637C3.85324 10.7093 3.72933 10.96 3.74998 11.2096C3.79014 11.5435 4.14353 11.8335 4.49463 11.8335L7.35045 11.8335C7.59713 11.8335 7.84611 11.9594 8.01134 12.1466C8.17656 12.3557 8.25917 12.6053 8.21786 12.8548L8.03199 14.3129C7.98954 14.5844 8.01134 14.8132 8.05264 15.0003C8.13962 15.3687 8.32571 15.6928 8.58006 15.9445C8.59626 15.9606 8.61274 15.9763 8.62949 15.9918C8.79567 16.145 8.98833 16.2686 9.19968 16.3556C9.42662 16.4489 9.6751 16.5 9.93549 16.5C9.97679 16.5 10.0181 16.4792 10.0387 16.4584C10.0594 16.4376 10.0801 16.3972 10.0801 16.3556L10.0801 14.6468C10.0801 13.7086 10.3497 12.7924 10.8454 12.001L11.5694 10.8341C11.718 10.6485 11.9478 10.4041 12.1892 10.2132ZM12.7026 11.8528C13.0626 12.2477 13.5812 12.4955 14.1577 12.4955L16.0315 12.4955C17.1187 12.4955 18 11.6142 18 10.527L18 3.96847C18 2.88131 17.1187 2 16.0315 2L14.1577 2C13.4206 2 12.7782 2.40509 12.4408 3.00478C11.9752 2.7401 11.4254 2.58559 10.8041 2.58558L5.55021 2.58558C4.96018 2.58558 4.36692 2.81682 3.93015 3.25317L3.92596 3.25737C3.47345 3.71304 3.30442 4.30661 3.30442 4.79151C3.30442 4.88672 3.31055 4.98876 3.32489 5.09495C2.78652 5.49599 2.43586 6.1353 2.43586 6.855C2.43586 7.02978 2.45639 7.2186 2.50644 7.41126C2.17476 7.79852 1.97158 8.30998 2.00296 8.89453C2.01573 9.37054 2.17927 9.82738 2.4685 10.1963C2.30253 10.5393 2.22163 10.929 2.25509 11.3333L2.25739 11.361L2.26071 11.3887C2.3363 12.0172 2.68399 12.4982 3.04613 12.7997C3.41124 13.1035 3.91792 13.3335 4.49463 13.3335L6.64471 13.3335L6.54634 14.1051C6.4754 14.5803 6.51453 14.9912 6.58789 15.3236L6.59026 15.3343L6.59279 15.3451C6.95523 16.8799 8.31179 18 9.93549 18C10.4041 18 10.821 17.7995 11.1031 17.5154C11.376 17.2406 11.5801 16.8297 11.5801 16.3556L11.5801 14.6468C11.5801 13.9964 11.7671 13.3553 12.1166 12.7972L12.7026 11.8528ZM2.93935 8.24436C2.93836 8.2432 2.93737 8.24204 2.93638 8.24087L2.93935 8.24436ZM13.6892 10.527C13.6892 10.7858 13.8989 10.9955 14.1577 10.9955L16.0315 10.9955C16.2903 10.9955 16.5 10.7858 16.5 10.527L16.5 3.96847C16.5 3.70974 16.2903 3.5 16.0315 3.5L14.1577 3.5C13.8989 3.5 13.6892 3.70974 13.6892 3.96847L13.6892 10.527Z" fill="#666F7D"/>
</svg>
